X:178
T:Jig,A. (p)1665.PLFD.178
M:6/4
L:1/4
Q:3/4=90
S:Playford, Dancing Master,2nd Supp. to 3rd Ed.,1665
O:England
H:166
Z:Chris Partington
K:Bb
f3d>cB|A2Bc2d|efgfd2|c3B3:||:c2dGAB|cA2G2F|
f2gdef|Bf2g2a|b3f>ed|c2de2f|g3fd2|c3B2:|
